Numix-GalliumOS/32/categories/preferences-system-directory.svg

<?xml version="1.0" encoding="UTF-8" standalone="no"?>
<svg
   xmlns:dc="http://purl.org/dc/elements/1.1/"
   xmlns:cc="http://creativecommons.org/ns#"
   xmlns:rdf="http://www.w3.org/1999/02/22-rdf-syntax-ns#"
   xmlns:svg="http://www.w3.org/2000/svg"
   xmlns="http://www.w3.org/2000/svg"
   xmlns:sodipodi="http://sodipodi.sourceforge.net/DTD/sodipodi-0.dtd"
   xmlns:inkscape="http://www.inkscape.org/namespaces/inkscape"
   width="32"
   height="32"
   viewBox="0 0 32 32"
   id="svg2"
   version="1.1"
   inkscape:version="0.91 r"
   sodipodi:docname="preferences-system-directory.svg">
  <metadata
     id="metadata16">
    <rdf:RDF>
      <cc:Work
         rdf:about="">
        <dc:format>image/svg+xml</dc:format>
        <dc:type
           rdf:resource="http://purl.org/dc/dcmitype/StillImage" />
      </cc:Work>
    </rdf:RDF>
  </metadata>
  <defs
     id="defs14" />
  <sodipodi:namedview
     pagecolor="#ffffff"
     bordercolor="#666666"
     borderopacity="1"
     objecttolerance="10"
     gridtolerance="10"
     guidetolerance="10"
     inkscape:pageopacity="0"
     inkscape:pageshadow="2"
     inkscape:window-width="1680"
     inkscape:window-height="1026"
     id="namedview12"
     showgrid="true"
     inkscape:zoom="14.75"
     inkscape:cx="4.9001859"
     inkscape:cy="10.152014"
     inkscape:window-x="0"
     inkscape:window-y="24"
     inkscape:window-maximized="1"
     inkscape:current-layer="svg2">
    <inkscape:grid
       type="xygrid"
       id="grid4144" />
  </sodipodi:namedview>
  <path
     style="fill:#555555"
     inkscape:connector-curvature="0"
     id="path6"
     d="m 28,13.576924 0,4.846153 C 28,18.742604 27.658284,19 27.245562,19 l -4.491124,0 C 22.337278,19 22,18.742604 22,18.423077 l 0,-4.846153 C 22,13.261835 22.337278,13 22.754438,13 l 4.491124,0 C 27.658284,13 28,13.261835 28,13.576924 Z" />
  <path
     style="fill:#555555"
     inkscape:connector-curvature="0"
     id="path8"
     d="m 19,13.576924 0,4.846153 C 19,18.742604 18.662722,19 18.245563,19 l -4.491125,0 C 13.337278,19 13,18.742604 13,18.423077 l 0,-4.846153 C 13,13.261835 13.337278,13 13.754438,13 l 4.491125,0 C 18.662722,13 19,13.261835 19,13.576924 Z" />
  <path
     style="fill:#555555"
     inkscape:connector-curvature="0"
     id="path10"
     d="m 10,13.576924 0,4.846153 C 10,18.742604 9.658283,19 9.245562,19 L 4.7544374,19 C 4.3372781,19 4,18.742604 4,18.423077 L 4,13.576924 C 4,13.261835 4.3372781,13 4.7544374,13 L 9.245562,13 C 9.658283,13 10,13.261835 10,13.576924 Z" />
</svg>

<svg xmlns="http://www.w3.org/2000/svg" viewBox="0 0 32 32">
 <path d="m 28 13.577 0 4.846 c 0 0.32 -0.342 0.577 -0.754 0.577 l -4.491 0 c -0.417 0 -0.754 -0.257 -0.754 -0.577 l 0 -4.846 c 0 -0.315 0.337 -0.577 0.754 -0.577 l 4.491 0 c 0.413 0 0.754 0.262 0.754 0.577" style="fill:#555"/>
 <path d="m 19 13.577 0 4.846 c 0 0.32 -0.337 0.577 -0.754 0.577 l -4.491 0 c -0.417 0 -0.754 -0.257 -0.754 -0.577 l 0 -4.846 c 0 -0.315 0.337 -0.577 0.754 -0.577 l 4.491 0 c 0.417 0 0.754 0.262 0.754 0.577" style="fill:#555"/>
 <path d="m 10 13.577 0 4.846 c 0 0.32 -0.342 0.577 -0.754 0.577 l -4.491 0 c -0.417 0 -0.754 -0.257 -0.754 -0.577 l 0 -4.846 c 0 -0.315 0.337 -0.577 0.754 -0.577 l 4.491 0 c 0.413 0 0.754 0.262 0.754 0.577" style="fill:#555"/>
</svg>
